icons/evergreen.svg

<?xml version="1.0" encoding="UTF-8"?>
<svg width="512px" height="107px" viewBox="0 0 512 107" version="1.1" xmlns="http://www.w3.org/2000/svg" xmlns:xlink="http://www.w3.org/1999/xlink">
    <!-- Generator: Sketch 61 (89581) - https://sketch.com -->
    <title>Group</title>
    <desc>Created with Sketch.</desc>
    <g stroke="none" stroke-width="1" fill="none" fill-rule="evenodd">
        <g fill-rule="nonzero">
            <path d="M169.120756,65.967388 L149.969793,65.967388 L149.969793,55.3076071 L168.03479,55.3076071 L168.03479,48.5153279 L149.969793,48.5153279 L149.969793,38.3285748 L169.117424,38.3285748 L169.117424,31.0366184 L141.128837,31.0366184 L141.128837,73.2859938 L169.117424,73.2859938 L169.117424,65.967388 L169.120756,65.967388 Z M202.166076,73.2859938 L216.360241,31.0366184 L206.726464,31.0366184 L197.066037,64.1818747 L196.859504,64.1818747 L187.199078,31.0366184 L177.305469,31.0366184 L191.502964,73.2859938 L202.162745,73.2859938 L202.166076,73.2859938 Z M253.153141,65.967388 L234.00551,65.967388 L234.00551,55.3076071 L252.070507,55.3076071 L252.070507,48.5153279 L234.00551,48.5153279 L234.00551,38.3285748 L253.153141,38.3285748 L253.153141,31.0366184 L225.164554,31.0366184 L225.164554,73.2859938 L253.153141,73.2859938 L253.153141,65.967388 Z M272.873736,37.9488201 L272.873736,51.416787 L280.488817,51.416787 C284.939275,51.416787 287.544259,48.8684332 287.544259,44.681138 C287.544259,40.5837847 284.792703,37.9488201 280.398875,37.9488201 L272.877067,37.9488201 L272.873736,37.9488201 Z M272.873736,57.8259803 L272.873736,73.2859938 L264.03278,73.2859938 L264.03278,31.0366184 L281.338268,31.0366184 C291.058656,31.0366184 296.621729,36.1599756 296.621729,44.5045854 C296.621729,49.9210865 293.810212,54.608059 288.950018,56.5101636 L297.850935,73.2859938 L287.837403,73.2859938 L279.96249,57.8293115 L272.877067,57.8293115 L272.873736,57.8259803 Z M344.684016,55.544121 L344.684016,50.7672066 L326.882182,50.7672066 L326.882182,57.2097117 L336.076243,57.2097117 L336.042931,57.8826104 C335.86971,63.122559 331.858967,66.6669361 326.092692,66.6669361 C319.063899,66.6669361 314.61344,61.0738823 314.61344,51.9098019 C314.61344,42.9222741 318.800736,37.6190331 325.769567,37.6190331 C330.543151,37.6190331 334.144158,40.2573289 335.429994,44.681138 L344.30093,44.681138 C343.041744,36.129995 335.606546,30.3037585 325.739587,30.3037585 C313.327604,30.3037585 305.595932,38.498465 305.595932,52.0263933 C305.595932,65.7575236 313.324273,74.0121914 325.94612,74.0121914 C337.715184,74.0121914 344.684016,67.0466908 344.684016,55.5407898 L344.684016,55.544121 Z M363.848304,37.9488201 L363.848304,51.416787 L371.460053,51.416787 C375.910512,51.416787 378.515496,48.8684332 378.515496,44.681138 C378.515496,40.5837847 375.76394,37.9488201 371.373443,37.9488201 L363.848304,37.9488201 L363.848304,37.9488201 Z M363.848304,57.8259803 L363.848304,73.2859938 L355.007348,73.2859938 L355.007348,31.0366184 L372.309505,31.0366184 C382.029892,31.0366184 387.592966,36.1599756 387.592966,44.5045854 C387.592966,49.9210865 384.781448,54.608059 379.921254,56.5101636 L388.822172,73.2859938 L378.80864,73.2859938 L370.933727,57.8293115 L363.848304,57.8293115 L363.848304,57.8259803 Z M425.874904,65.967388 L406.727272,65.967388 L406.727272,55.3076071 L424.79227,55.3076071 L424.79227,48.5153279 L406.727272,48.5153279 L406.727272,38.3285748 L425.874904,38.3285748 L425.874904,31.0366184 L397.886317,31.0366184 L397.886317,73.2859938 L425.874904,73.2859938 L425.874904,65.967388 Z M464.746461,65.967388 L445.59883,65.967388 L445.59883,55.3076071 L463.663827,55.3076071 L463.663827,48.5153279 L445.59883,48.5153279 L445.59883,38.3285748 L464.746461,38.3285748 L464.746461,31.0366184 L436.754543,31.0366184 L436.754543,73.2859938 L464.746461,73.2859938 L464.746461,65.967388 Z M484.087301,73.2859938 L484.087301,45.6172 L484.350465,45.6172 L504.114365,73.2859938 L511.43297,73.2859938 L511.43297,31.0366184 L502.971769,31.0366184 L502.971769,58.5588403 L502.738587,58.5588403 L483.004667,31.0366184 L475.6261,31.0366184 L475.6261,73.2859938 L484.087301,73.2859938 Z" fill="#1F4160"></path>
            <circle fill="#38A065" cx="53.2989046" cy="53.2989046" r="53.2989046"></circle>
            <path d="M56.6300862,73.2859938 L56.6300862,86.61072 L49.9677231,86.61072 L49.9677231,73.2859938 L56.6300862,73.2859938 Z M53.2989046,23.3182708 L76.6171754,69.9548123 L29.9806338,69.9548123 L53.2989046,23.3182708 Z" fill="#FFFFFF"></path>
        </g>
    </g>
</svg>

<svg xmlns="http://www.w3.org/2000/svg" viewBox="0 0 511.433 106.598">
  <g fill="none" fill-rule="nonzero">
    <path fill="#1f4160" d="M169.12 65.967h-19.15v-10.66h18.065v-6.792H149.97V38.33h19.147v-7.292H141.13v42.249h27.988v-7.319zm33.046 7.319 14.194-42.25h-9.634l-9.66 33.146h-.206l-9.66-33.145h-9.895l14.198 42.249h10.66zm50.987-7.319h-19.147v-10.66h18.065v-6.792h-18.065V38.33h19.147v-7.292h-27.988v42.249h27.988zm19.72-28.018v13.468h7.616c4.45 0 7.055-2.549 7.055-6.736 0-4.097-2.751-6.732-7.145-6.732h-7.522zm0 19.877v15.46h-8.84v-42.25h17.305c9.72 0 15.284 5.124 15.284 13.469 0 5.416-2.812 10.103-7.672 12.005l8.9 16.776h-10.013l-7.875-15.457h-7.085zm71.811-2.282v-4.777h-17.802v6.443h9.194l-.033.673c-.173 5.24-4.184 8.784-9.95 8.784-7.03 0-11.48-5.593-11.48-14.757 0-8.988 4.188-14.291 11.157-14.291 4.773 0 8.374 2.638 9.66 7.062h8.87c-1.258-8.551-8.693-14.377-18.56-14.377-12.412 0-20.144 8.194-20.144 21.722 0 13.732 7.728 21.986 20.35 21.986 11.77 0 18.738-6.965 18.738-18.471zm19.164-17.595v13.468h7.612c4.45 0 7.055-2.549 7.055-6.736 0-4.097-2.751-6.732-7.142-6.732zm0 19.877v15.46h-8.84v-42.25h17.301c9.72 0 15.284 5.124 15.284 13.469 0 5.416-2.812 10.103-7.672 12.005l8.901 16.776H378.81l-7.875-15.457h-7.086zm62.027 8.141h-19.148v-10.66h18.065v-6.792h-18.065V38.33h19.148v-7.292h-27.989v42.249h27.989zm38.871 0H445.6v-10.66h18.065v-6.792h-18.065V38.33h19.147v-7.292h-27.991v42.249h27.991zm19.341 7.319V45.617h.263l19.764 27.669h7.319v-42.25h-8.461V58.56h-.233l-19.734-27.522h-7.379v42.249z"/>
    <circle cx="53.299" cy="53.299" r="53.299" fill="#38a065"/>
    <path fill="#fff" d="M56.63 73.286v13.325h-6.662V73.286zM53.3 23.318l23.318 46.637H29.981z"/>
  </g>
</svg>
